public/assets/imgs/projetos/icons/fechadura.svg

<svg fill="none" height="41" viewBox="0 0 43 41" width="43" xmlns="http://www.w3.org/2000/svg"><path clip-rule="evenodd" d="m16.75 1.94083h-12c-1.51878 0-2.75 1.19479-2.75 2.66864v31.78103c0 1.4739 1.23122 2.6687 2.75 2.6687h12c1.5188 0 2.75-1.1948 2.75-2.6687v-.9704h-10.75c-2.62335 0-4.75-2.0637-4.75-4.6094v-3.1539c0-2.5457 2.12665-4.6095 4.75-4.6095h10.75v-18.43783c0-1.47385-1.2312-2.66864-2.75-2.66864zm4.75 21.10647v-18.43783c0-2.54574-2.1266-4.60947-4.75-4.60947h-12c-2.62335 0-4.75 2.06373-4.75 4.60947v31.78103c0 2.5458 2.12665 4.6095 4.75 4.6095h12c2.6234 0 4.75-2.0637 4.75-4.6095v-.9704h16.75c2.6234 0 4.75-2.0637 4.75-4.6094v-3.1539c0-2.5457-2.1266-4.6095-4.75-4.6095zm-16.375-13.82836c.75939 0 1.375-.5974 1.375-1.33432 0-.73693-.61561-1.33432-1.375-1.33432s-1.375.59739-1.375 1.33432c0 .73692.61561 1.33432 1.375 1.33432zm0 .97036c1.31168 0 2.375-1.03182 2.375-2.30468 0-1.27287-1.06332-2.30474-2.375-2.30474s-2.375 1.03187-2.375 2.30474c0 1.27286 1.06332 2.30468 2.375 2.30468zm0 4.8521c.75939 0 1.375-.5974 1.375-1.3343s-.61561-1.3343-1.375-1.3343-1.375.5974-1.375 1.3343.61561 1.3343 1.375 1.3343zm0 .9704c1.31168 0 2.375-1.0318 2.375-2.3047s-1.06332-2.3047-2.375-2.3047-2.375 1.0318-2.375 2.3047 1.06332 2.3047 2.375 2.3047zm1.375 3.5178c0 .7369-.61561 1.3343-1.375 1.3343s-1.375-.5974-1.375-1.3343.61561-1.3343 1.375-1.3343 1.375.5974 1.375 1.3343zm1 0c0 1.2729-1.06332 2.3047-2.375 2.3047s-2.375-1.0318-2.375-2.3047 1.06332-2.3047 2.375-2.3047 2.375 1.0318 2.375 2.3047zm3.375-10.31066c.7594 0 1.375-.5974 1.375-1.33432 0-.73693-.6156-1.33432-1.375-1.33432s-1.375.59739-1.375 1.33432c0 .73692.6156 1.33432 1.375 1.33432zm0 .97036c1.3117 0 2.375-1.03182 2.375-2.30468 0-1.27287-1.0633-2.30474-2.375-2.30474-1.31168 0-2.375 1.03187-2.375 2.30474 0 1.27286 1.06332 2.30468 2.375 2.30468zm1.375 3.5178c0 .7369-.6156 1.3343-1.375 1.3343s-1.375-.5974-1.375-1.3343.6156-1.3343 1.375-1.3343 1.375.5974 1.375 1.3343zm1 0c0 1.2729-1.0633 2.3047-2.375 2.3047-1.31168 0-2.375-1.0318-2.375-2.3047s1.06332-2.3047 2.375-2.3047c1.3117 0 2.375 1.0318 2.375 2.3047zm-2.375 7.1568c.7594 0 1.375-.5974 1.375-1.3343s-.6156-1.3343-1.375-1.3343-1.375.5974-1.375 1.3343.6156 1.3343 1.375 1.3343zm0 .9704c1.3117 0 2.375-1.0318 2.375-2.3047s-1.0633-2.3047-2.375-2.3047c-1.31168 0-2.375 1.0318-2.375 2.3047s1.06332 2.3047 2.375 2.3047zm7.125-13.94968c0 .73692-.6156 1.33432-1.375 1.33432s-1.375-.5974-1.375-1.33432c0-.73693.6156-1.33432 1.375-1.33432s1.375.59739 1.375 1.33432zm1 0c0 1.27286-1.0633 2.30468-2.375 2.30468s-2.375-1.03182-2.375-2.30468c0-1.27287 1.0633-2.30474 2.375-2.30474s2.375 1.03187 2.375 2.30474zm-2.375 7.15678c.7594 0 1.375-.5974 1.375-1.3343s-.6156-1.3343-1.375-1.3343-1.375.5974-1.375 1.3343.6156 1.3343 1.375 1.3343zm0 .9704c1.3117 0 2.375-1.0318 2.375-2.3047s-1.0633-2.3047-2.375-2.3047-2.375 1.0318-2.375 2.3047 1.0633 2.3047 2.375 2.3047zm1.375 3.5178c0 .7369-.6156 1.3343-1.375 1.3343s-1.375-.5974-1.375-1.3343.6156-1.3343 1.375-1.3343 1.375.5974 1.375 1.3343zm1 0c0 1.2729-1.0633 2.3047-2.375 2.3047s-2.375-1.0318-2.375-2.3047 1.0633-2.3047 2.375-2.3047 2.375 1.0318 2.375 2.3047zm22 11.2811v-3.1539c0-1.4738-1.2312-2.6686-2.75-2.6686h-29.5c-1.51878 0-2.75 1.1948-2.75 2.6686v3.1539c0 1.4738 1.23122 2.6686 2.75 2.6686h29.5c1.5188 0 2.75-1.1948 2.75-2.6686zm-28.75-1.577c0 1.0049-.8395 1.8196-1.875 1.8196-1.03553 0-1.875-.8147-1.875-1.8196s.83947-1.8195 1.875-1.8195c1.0355 0 1.875.8146 1.875 1.8195zm1.25 0c0 1.6749-1.3991 3.0326-3.125 3.0326-1.72589 0-3.125-1.3577-3.125-3.0326 0-1.6748 1.39911-3.0325 3.125-3.0325 1.7259 0 3.125 1.3577 3.125 3.0325zm23.25-1.0917h-17.25c-.4142 0-.75.3259-.75.7278v1.4556c0 .402.3358.7279.75.7279h17.25c.4142 0 .75-.3259.75-.7279v-1.4556c0-.4019-.3358-.7278-.75-.7278zm-17.25-1.213c-1.1046 0-2 .8689-2 1.9408v1.4556c0 1.0719.8954 1.9409 2 1.9409h17.25c1.1046 0 2-.869 2-1.9409v-1.4556c0-1.0719-.8954-1.9408-2-1.9408z" fill="#000" fill-rule="evenodd"/></svg>

<svg width="43" height="41" viewBox="0 0 43 41" fill="none" xmlns="http://www.w3.org/2000/svg">
<path fill-rule="evenodd" clip-rule="evenodd" d="M16.75 1.94083H4.75C3.23122 1.94083 2 3.13562 2 4.60947V36.3905C2 37.8644 3.23122 39.0592 4.75 39.0592H16.75C18.2688 39.0592 19.5 37.8644 19.5 36.3905V35.4201H8.75C6.12665 35.4201 4 33.3564 4 30.8107V27.6568C4 25.1111 6.12665 23.0473 8.75 23.0473H19.5V4.60947C19.5 3.13562 18.2688 1.94083 16.75 1.94083ZM21.5 23.0473V4.60947C21.5 2.06373 19.3734 0 16.75 0H4.75C2.12665 0 0 2.06373 0 4.60947V36.3905C0 38.9363 2.12665 41 4.75 41H16.75C19.3734 41 21.5 38.9363 21.5 36.3905V35.4201H38.25C40.8734 35.4201 43 33.3564 43 30.8107V27.6568C43 25.1111 40.8734 23.0473 38.25 23.0473L21.5 23.0473ZM5.125 9.21894C5.88439 9.21894 6.5 8.62154 6.5 7.88462C6.5 7.14769 5.88439 6.5503 5.125 6.5503C4.36561 6.5503 3.75 7.14769 3.75 7.88462C3.75 8.62154 4.36561 9.21894 5.125 9.21894ZM5.125 10.1893C6.43668 10.1893 7.5 9.15748 7.5 7.88462C7.5 6.61175 6.43668 5.57988 5.125 5.57988C3.81332 5.57988 2.75 6.61175 2.75 7.88462C2.75 9.15748 3.81332 10.1893 5.125 10.1893ZM5.125 15.0414C5.88439 15.0414 6.5 14.444 6.5 13.7071C6.5 12.9702 5.88439 12.3728 5.125 12.3728C4.36561 12.3728 3.75 12.9702 3.75 13.7071C3.75 14.444 4.36561 15.0414 5.125 15.0414ZM5.125 16.0118C6.43668 16.0118 7.5 14.98 7.5 13.7071C7.5 12.4342 6.43668 11.4024 5.125 11.4024C3.81332 11.4024 2.75 12.4342 2.75 13.7071C2.75 14.98 3.81332 16.0118 5.125 16.0118ZM6.5 19.5296C6.5 20.2665 5.88439 20.8639 5.125 20.8639C4.36561 20.8639 3.75 20.2665 3.75 19.5296C3.75 18.7927 4.36561 18.1953 5.125 18.1953C5.88439 18.1953 6.5 18.7927 6.5 19.5296ZM7.5 19.5296C7.5 20.8025 6.43668 21.8343 5.125 21.8343C3.81332 21.8343 2.75 20.8025 2.75 19.5296C2.75 18.2567 3.81332 17.2249 5.125 17.2249C6.43668 17.2249 7.5 18.2567 7.5 19.5296ZM10.875 9.21894C11.6344 9.21894 12.25 8.62154 12.25 7.88462C12.25 7.14769 11.6344 6.5503 10.875 6.5503C10.1156 6.5503 9.5 7.14769 9.5 7.88462C9.5 8.62154 10.1156 9.21894 10.875 9.21894ZM10.875 10.1893C12.1867 10.1893 13.25 9.15748 13.25 7.88462C13.25 6.61175 12.1867 5.57988 10.875 5.57988C9.56332 5.57988 8.5 6.61175 8.5 7.88462C8.5 9.15748 9.56332 10.1893 10.875 10.1893ZM12.25 13.7071C12.25 14.444 11.6344 15.0414 10.875 15.0414C10.1156 15.0414 9.5 14.444 9.5 13.7071C9.5 12.9702 10.1156 12.3728 10.875 12.3728C11.6344 12.3728 12.25 12.9702 12.25 13.7071ZM13.25 13.7071C13.25 14.98 12.1867 16.0118 10.875 16.0118C9.56332 16.0118 8.5 14.98 8.5 13.7071C8.5 12.4342 9.56332 11.4024 10.875 11.4024C12.1867 11.4024 13.25 12.4342 13.25 13.7071ZM10.875 20.8639C11.6344 20.8639 12.25 20.2665 12.25 19.5296C12.25 18.7927 11.6344 18.1953 10.875 18.1953C10.1156 18.1953 9.5 18.7927 9.5 19.5296C9.5 20.2665 10.1156 20.8639 10.875 20.8639ZM10.875 21.8343C12.1867 21.8343 13.25 20.8025 13.25 19.5296C13.25 18.2567 12.1867 17.2249 10.875 17.2249C9.56332 17.2249 8.5 18.2567 8.5 19.5296C8.5 20.8025 9.56332 21.8343 10.875 21.8343ZM18 7.88462C18 8.62154 17.3844 9.21894 16.625 9.21894C15.8656 9.21894 15.25 8.62154 15.25 7.88462C15.25 7.14769 15.8656 6.5503 16.625 6.5503C17.3844 6.5503 18 7.14769 18 7.88462ZM19 7.88462C19 9.15748 17.9367 10.1893 16.625 10.1893C15.3133 10.1893 14.25 9.15748 14.25 7.88462C14.25 6.61175 15.3133 5.57988 16.625 5.57988C17.9367 5.57988 19 6.61175 19 7.88462ZM16.625 15.0414C17.3844 15.0414 18 14.444 18 13.7071C18 12.9702 17.3844 12.3728 16.625 12.3728C15.8656 12.3728 15.25 12.9702 15.25 13.7071C15.25 14.444 15.8656 15.0414 16.625 15.0414ZM16.625 16.0118C17.9367 16.0118 19 14.98 19 13.7071C19 12.4342 17.9367 11.4024 16.625 11.4024C15.3133 11.4024 14.25 12.4342 14.25 13.7071C14.25 14.98 15.3133 16.0118 16.625 16.0118ZM18 19.5296C18 20.2665 17.3844 20.8639 16.625 20.8639C15.8656 20.8639 15.25 20.2665 15.25 19.5296C15.25 18.7927 15.8656 18.1953 16.625 18.1953C17.3844 18.1953 18 18.7927 18 19.5296ZM19 19.5296C19 20.8025 17.9367 21.8343 16.625 21.8343C15.3133 21.8343 14.25 20.8025 14.25 19.5296C14.25 18.2567 15.3133 17.2249 16.625 17.2249C17.9367 17.2249 19 18.2567 19 19.5296ZM41 30.8107V27.6568C41 26.183 39.7688 24.9882 38.25 24.9882L8.75 24.9882C7.23122 24.9882 6 26.183 6 27.6568L6 30.8107C6 32.2845 7.23122 33.4793 8.75 33.4793H38.25C39.7688 33.4793 41 32.2845 41 30.8107ZM12.25 29.2337C12.25 30.2386 11.4105 31.0533 10.375 31.0533C9.33947 31.0533 8.5 30.2386 8.5 29.2337C8.5 28.2288 9.33947 27.4142 10.375 27.4142C11.4105 27.4142 12.25 28.2288 12.25 29.2337ZM13.5 29.2337C13.5 30.9086 12.1009 32.2663 10.375 32.2663C8.64911 32.2663 7.25 30.9086 7.25 29.2337C7.25 27.5589 8.64911 26.2012 10.375 26.2012C12.1009 26.2012 13.5 27.5589 13.5 29.2337ZM36.75 28.142H19.5C19.0858 28.142 18.75 28.4679 18.75 28.8698V30.3254C18.75 30.7274 19.0858 31.0533 19.5 31.0533H36.75C37.1642 31.0533 37.5 30.7274 37.5 30.3254V28.8698C37.5 28.4679 37.1642 28.142 36.75 28.142ZM19.5 26.929C18.3954 26.929 17.5 27.7979 17.5 28.8698V30.3254C17.5 31.3973 18.3954 32.2663 19.5 32.2663H36.75C37.8546 32.2663 38.75 31.3973 38.75 30.3254V28.8698C38.75 27.7979 37.8546 26.929 36.75 26.929H19.5Z" fill="black"/>
</svg>
